X:1
T:Title
%%score ( 1 2 ) { 3 | 4 }
L:1/8
Q:1/4=107
M:4/4
K:G
V:1 treble nm="Grand Piano, Soprano"
V:2 treble 
V:3 bass nm="Choir Pad, Dearborn, 87.87 D"
V:4 bass 
V:1
 [B,D]3 [B,E] [CG]2 [CF]2 | [B,D]3 [B,E] [CG]2 [CF]2 | [DG]2 [FA]2 [GB]2 dc | [CE]2 [CF]2 [B,G]4 | %4
w: By~W.~Birtchnell,~1912 * * *||||
 [B,D]3 [B,E] [CG]2 [CF]2 | D2 z E [^CG]2 [DF]2 | B3 B [DA]2 D2 | D-[DG]FE D4 | %8
w: ||||
 [Fc]2 [DB][CA] [B,G]2 D2 | .F2 z2 z4 | D2 D-[DF] [DG]2 AB | [Dc]2 [DB]2 [DA]4 | %12
w: ||||
 D2 z E [DG]2 [DF]2 | F3 G [EB]2 [EA]2 | [EA]2 [Ge]2 [Gd]2 G2 | G-[Gc]BA G4- | G4 z4 |] %17
w: |||||
V:2
 x8 | x8 | z4 z2 E2 | x8 | x8 | z2 B,2 z4 | D2 D2 z4 | .E2 ^C2 z4 | x8 | %9
 c-[Ec][DB][CA] [B,G][CE] [B,D]2 | z2 .E2 z2 D2 | x8 | z2 D2 z4 | D2 D2 z4 | x8 | .A2 F2 z4 | x8 |] %17
V:3
 G,2 G,2 D,2 D,2 | G,2 G,2 D,2 D,2 | G,2 D2 D2 A,2 | A,2 A,2 G,4 | G,2 G,2 D,2 D,2 | %5
 G,2 G,2 E,2 F,2 | F,2 =F,2 ^F,2 F,2 | B,2 A,G, F,4 | A,2 F,2 G,2 G,2 | A,2 F,2 G,2 G,2 | %10
 F,2 G,A, B,2 G,G, | F,2 G,2 F,4 | G,2 B,2[K:treble] D2 A,2 | D2 D2 C2 C2 | A,2 _B,2 =B,2 B,2 | %15
 E2 DC B,4- | B,4 z4 |] %17
V:4
 G,,2 G,,2 A,,2 A,,2 | B,,2 B,,2 A,,2 A,,2 | B,,2 A,,2 G,,2 A,,2 | C,2 D,2 G,,4 | %4
 G,,2 G,,2 A,,2 A,,2 | B,,2 G,,2 A,,2 D,2 | B,,2 ^G,,2 A,,2 B,,2 | G,,2 A,,2 D,4 | %8
 D,2 D,2 G,,2 B,,2 | A,,2 D,2 G,,C, G,,2 | D,C,B,,A,, G,,2 E,B,, | A,,2 G,,2 D,4 | %12
 B,,2 G,,2 A,,2 A,,2 | B,,2 B,,2 C,2 C,2 | C,2 ^C,2 D,2 E,2 | C,2 D,2 G,4- | G,4 z4 |] %17

